svgs/thin/trowel-bricks.svg

<svg xmlns="http://www.w3.org/2000/svg" viewBox="0 0 512 512"><!--! Font Awesome Pro 6.1.1 by @fontawesome - https://fontawesome.com License - https://fontawesome.com/license (Commercial License) Copyright 2022 Fonticons, Inc. --><path d="M256 120H344V112C344 94.33 358.3 80 376 80H464C490.5 80 512 101.5 512 128C512 154.5 490.5 176 464 176H376C358.3 176 344 161.7 344 144V136H256V224C256 235.1 250.3 245.4 240.8 251.2C231.4 257.1 219.6 257.6 209.7 252.6L17.69 156.6C6.848 151.2 0 140.1 0 128C0 115.9 6.848 104.8 17.69 99.38L209.7 3.378C219.6-1.581 231.4-1.051 240.8 4.779C250.3 10.61 256 20.91 256 32V120zM216.8 17.69L24.84 113.7C19.42 116.4 16 121.9 16 128C16 134.1 19.42 139.6 24.84 142.3L216.8 238.3C221.8 240.8 227.7 240.5 232.4 237.6C237.1 234.7 239.1 229.5 239.1 223.1V31.1C239.1 26.45 237.1 21.3 232.4 18.39C227.7 15.47 221.8 15.21 216.8 17.69V17.69zM376 160H464C481.7 160 496 145.7 496 128C496 110.3 481.7 96 464 96H376C367.2 96 360 103.2 360 112V144C360 152.8 367.2 160 376 160zM288 368V272C288 254.3 302.3 240 320 240H480C497.7 240 512 254.3 512 272V480C512 497.7 497.7 512 480 512H32C14.33 512 0 497.7 0 480V400C0 382.3 14.33 368 32 368H288zM240 384V496H480C488.8 496 496 488.8 496 480V384H240zM32 384C23.16 384 16 391.2 16 400V480C16 488.8 23.16 496 32 496H224V384H32zM496 272C496 263.2 488.8 256 480 256H320C311.2 256 304 263.2 304 272V368H496V272z"/></svg>

<svg xmlns="http://www.w3.org/2000/svg" viewBox="0 0 512 512"><!--! Font Awesome Pro 6.4.2 by @fontawesome - https://fontawesome.com License - https://fontawesome.com/license (Commercial License) Copyright 2023 Fonticons, Inc. --><path d="M232.4 18.4c-4.7-2.9-10.6-3.2-15.6-.7l-192 96c-5.4 2.7-8.8 8.3-8.8 14.3s3.4 11.6 8.8 14.3l192 96c5 2.5 10.9 2.2 15.6-.7s7.6-8.1 7.6-13.6V32c0-5.5-2.9-10.7-7.6-13.6zM256 32v88h88v-8c0-17.7 14.3-32 32-32h88c26.5 0 48 21.5 48 48s-21.5 48-48 48H376c-17.7 0-32-14.3-32-32v-8H256v88c0 11.1-5.7 21.4-15.2 27.2s-21.2 6.4-31.1 1.4l-192-96C6.8 151.2 0 140.1 0 128s6.8-23.2 17.7-28.6l192-96c9.9-5 21.7-4.4 31.1 1.4S256 20.9 256 32zM360 144c0 8.8 7.2 16 16 16h88c17.7 0 32-14.3 32-32s-14.3-32-32-32H376c-8.8 0-16 7.2-16 16v16 16zM288 384H240V496H480c8.8 0 16-7.2 16-16V408v-8V384H304 288zm-64-16h16 32 16V352 272c0-17.7 14.3-32 32-32H480c17.7 0 32 14.3 32 32V400v8 72c0 17.7-14.3 32-32 32H32c-17.7 0-32-14.3-32-32V400c0-17.7 14.3-32 32-32H224zm0 16H32c-8.8 0-16 7.2-16 16v80c0 8.8 7.2 16 16 16H224V384zm272-16V272c0-8.8-7.2-16-16-16H320c-8.8 0-16 7.2-16 16v96H496z"/></svg>
